svgs/regular/file-certificate.svg

<svg xmlns="http://www.w3.org/2000/svg" viewBox="0 0 512 512"><!--! Font Awesome Pro 6.0.0-alpha3 by @fontawesome - https://fontawesome.com License - https://fontawesome.com/license (Commercial License) --><path d="M247.4 338.3c7.5-7.5 10.37-18.5 7.625-28.75c-5.375-20.62-5.5-17.75 0-38.38c2.748-10.38-.125-21.38-7.625-28.88C232.5 227.1 233.1 229.6 228.5 209C225.9 198.8 217.1 190.8 207.9 188C187.5 182.4 190 183.9 175.1 168.8C167.8 161.3 156.1 158.3 146.9 161c-20.37 5.5-17.49 5.5-37.74 0C99.01 158.3 88.26 161.3 80.89 168.8C65.89 183.9 68.39 182.4 48.14 188C38.02 190.8 30.23 198.8 27.48 209c-5.375 20.75-4 18.12-18.87 33.25c-7.375 7.5-10.33 18.5-7.582 28.88c5.375 20.62 5.375 17.75 0 38.38c-2.75 10.25 .207 21.25 7.582 28.75c14.87 15.12 13.5 12.62 18.87 33.25c2.75 10.38 10.54 18.38 20.67 21.12c14.37 3.875 11.5 3 15.87 5V512l63.99-32l63.99 32v-114.4c4.25-2 1.499-1.125 15.87-5c9.998-2.75 17.1-10.75 20.62-21.12C233.1 350.8 232.5 353.4 247.4 338.3zM128 352c-35.37 0-63.99-28.62-63.99-64S92.64 224 128 224s63.99 28.62 63.99 64S163.4 352 128 352zM493.3 93.38l-74.63-74.64C406.6 6.742 390.3 0 373.4 0L191.1-.0001c-35.35 0-64 28.65-64 64l.0105 68.94c0 0 22.02-10.7 48-.7539L176 64.13c0-8.836 7.164-16 16-16h160L352 128c0 17.67 14.33 32 32 32h79.1v288c0 8.836-7.164 16-16 16H224L223.1 512l224-.0001c35.2 0 64-28.8 64-64V138.6C512 121.7 505.3 105.4 493.3 93.38z"/></svg>

<svg xmlns="http://www.w3.org/2000/svg" viewBox="0 0 512 512"><!-- Font Awesome Pro 6.0.0-alpha2 by @fontawesome - https://fontawesome.com License - https://fontawesome.com/license (Commercial License) --><path d="M247.389 338.25C254.889 330.75 257.762 319.75 255.014 309.5C249.639 288.875 249.514 291.75 255.014 271.125C257.762 260.75 254.889 249.75 247.389 242.25C232.514 227.125 234.014 229.625 228.514 209C225.889 198.75 218.014 190.75 207.891 188C187.516 182.375 190.016 183.875 175.143 168.75C167.768 161.25 157.018 158.25 146.893 161C126.52 166.5 129.395 166.5 109.145 161C99.02 158.25 88.271 161.25 80.896 168.75C65.896 183.875 68.396 182.375 48.148 188C38.023 190.75 30.148 198.75 27.398 209C22.023 229.75 23.398 227.125 8.525 242.25C1.15 249.75 -1.725 260.75 1.025 271.125C6.4 291.75 6.4 288.875 1.025 309.5C-1.725 319.75 1.15 330.75 8.525 338.25C23.398 353.375 22.023 350.875 27.398 371.5C30.148 381.875 38.023 389.875 48.148 392.625C62.521 396.5 59.646 395.625 64.021 397.625V512L128.02 480L192.016 512V397.625C196.266 395.625 193.516 396.5 207.891 392.625C217.889 389.875 225.889 381.875 228.514 371.5C234.014 350.75 232.514 353.375 247.389 338.25ZM128.02 352C92.646 352 64.021 323.375 64.021 288S92.646 224 128.02 224S192.016 252.625 192.016 288S163.393 352 128.02 352ZM493.256 93.383L418.627 18.746C406.625 6.742 390.348 0 373.373 0H192C156.654 0 128 28.652 128 64V96L128.002 132.926C128.002 132.926 150.018 122.246 176.004 132.188L176 64.125C176 55.289 183.164 48.125 192 48.125H352.008V128C352.008 145.672 366.334 160 384.008 160H464.002V448C464.002 456.836 456.838 464 448.002 464H224.016V512H448C483.199 512 512 483.199 512 448V138.641C512 121.664 505.258 105.383 493.256 93.383Z"/></svg>
